X: 2054
T: Farewell To Erin
B: sean kenan irish music
M:4/4
Q: 1/4=100
K:Dmajor
V:1 
"D"D2 ED FAAe|"Bm"f2df "A"edBc|"Bm"dBAF "G"GFGB|1"D"(3ABA FD "A"EDCE:|2 "D"(3ABA FD "A"EDDA||
 |:"Bm"defg "D"afdf|"G"g2fd "A"edBA|"D"defg "Bm"afdf|"G"gfed "Em"e3A|
 "D"dcdf a2fa|"G"(3gag "D"fd "A"edBc|"Bm"dBAF "G"GFGB|"D"(3ABA FD "A"EDCE:|
% abcbook-tune_id 62ba8ab08e2d56024613a169


% abcbook-boost 0
% abcbook-tablature 
% abcbook-transpose 
% abcbook-lastupdated 1666681453109
% abcbook-soundfonts 
% abcbook-repeats 1


